X:252
T:Skylark, The
R:reel
C:James Morrison (1893-1947)
D:Noel Hill & Tony Linnane
D:Paul McGrattan: The Frost Is All Over
Z:id:hn-reel-252
M:C|
K:D
agfg efdB|AF~F2 DFAd|BG~G2 EGBG|AF~F2 ABdf|
agfg efdB|AF~F2 DFAd|BG~G2 A2ag|1 faeg fd~d2:|2 faeg fddf||
|:a2fd Adfd|efed cA~A2|a2fa bged|Beed efge|
~f3d ~g3e|f2df edBA|F2AF GABG|1 Afag fddf:|2 Afag fdd2||
P:variations
|:A2af efdB|AF~F2 DFAd|BG~G2 EFGE|FA~A2 BAFA|
ABdf efdB|AF~F2 DFAd|BG~G2 Ebag|1 faeg fd~d2:|2 faeg fddf||
|:a2fd Adfd|efed cAdf|a2fa bged|Beed efge|
f2af g2bg|afef dBAG|FAdA GBed|1 cbag fddf:|2 cbag fdd2||

